X:216
T: Marquis of Huntly's Strathspey
N: O'Farrell's Pocket Companion v.3 (Sky ed. p.107)
N: "Scotch"
M: C
L: 1/8
R: hornpipe
Q: 250
K: A
A| E<AA>G E<AA>B| G>ABc d/c/B/A/ G2| E<AA>G  EAA>f|
gd e/d/c/B/ A2A :|
e| abc'a eac'a| b/a/g/e/ de g>abg| a>bc'a e>ac'a| bgeg a2 a2|
a>bc'a bgae| gded BGdB| E<AA>G  EAA>f| gd e/d/c/B/ A2A :|
